app/assets/images/icons/active/tube.svg

<svg width="32" height="232" viewBox="0 0 32 232" xmlns="http://www.w3.org/2000/svg" xmlns:sketch="http://www.bohemiancoding.com/sketch/ns"><title>tube</title><g sketch:type="MSPage" fill="none"><path d="M27.734 135.227h-1.634c-.969-4.699-5.12-8.227-10.1-8.227-4.984.005-9.137 3.532-10.1 8.227h-1.634c-.424 0-.766.268-.766.596v3.008c0 .324.342.594.766.594h1.63c.963 4.689 5.12 8.216 10.104 8.216 4.984 0 9.135-3.527 10.102-8.216h1.632c.426 0 .766-.27.766-.594v-3.008c0-.328-.34-.596-.766-.596zm-11.734 8.725c-2.932-.006-5.408-1.899-6.285-4.527h12.568c-.879 2.628-3.359 4.521-6.283 4.527zm-6.283-8.725c.877-2.634 3.353-4.537 6.283-4.545 2.924.008 5.404 1.911 6.283 4.545h-12.566zm0 0" fill="#206FAC" sketch:type="MSShapeGroup"/><path d="M27.734 95.227h-1.634c-.969-4.699-5.12-8.227-10.1-8.227-4.984.005-9.137 3.532-10.1 8.227h-1.634c-.424 0-.766.268-.766.596v3.008c0 .324.342.594.766.594h1.63c.963 4.689 5.12 8.216 10.104 8.216 4.984 0 9.135-3.527 10.102-8.216h1.632c.426 0 .766-.27.766-.594v-3.008c0-.328-.34-.596-.766-.596zm-11.734 8.725c-2.932-.006-5.408-1.899-6.285-4.527h12.568c-.879 2.628-3.359 4.521-6.283 4.527zm-6.283-8.725c.877-2.634 3.353-4.537 6.283-4.545 2.924.008 5.404 1.911 6.283 4.545h-12.566zm0 0" fill="#fff" sketch:type="MSShapeGroup"/><path d="M27.734 55.227h-1.634c-.969-4.699-5.12-8.227-10.1-8.227-4.984.005-9.137 3.532-10.1 8.227h-1.634c-.424 0-.766.268-.766.596v3.008c0 .324.342.594.766.594h1.63c.963 4.689 5.12 8.216 10.104 8.216 4.984 0 9.135-3.527 10.102-8.216h1.632c.426 0 .766-.27.766-.594v-3.008c0-.328-.34-.596-.766-.596zm-11.734 8.725c-2.932-.006-5.408-1.899-6.285-4.527h12.568c-.879 2.628-3.359 4.521-6.283 4.527zm-6.283-8.725c.877-2.634 3.353-4.537 6.283-4.545 2.924.008 5.404 1.911 6.283 4.545h-12.566zm0 0" fill="#67737B" sketch:type="MSShapeGroup"/><path d="M27.734 15.227h-1.634c-.969-4.699-5.12-8.227-10.1-8.227-4.984.005-9.137 3.532-10.1 8.227h-1.634c-.424 0-.766.268-.766.596v3.008c0 .324.342.594.766.594h1.63c.963 4.689 5.12 8.216 10.104 8.216 4.984 0 9.135-3.527 10.102-8.216h1.632c.426 0 .766-.27.766-.594v-3.008c0-.328-.34-.596-.766-.596zm-11.734 8.725c-2.932-.006-5.408-1.899-6.285-4.527h12.568c-.879 2.628-3.359 4.521-6.283 4.527zm-6.283-8.725c.877-2.634 3.353-4.537 6.283-4.545 2.924.008 5.404 1.911 6.283 4.545h-12.566zm0 0" fill="#3A434E" sketch:type="MSShapeGroup"/></g></svg>

<?xml version="1.0" encoding="UTF-8" standalone="no"?>
<svg width="32px" height="232px" viewBox="0 0 32 232" version="1.1" xmlns="http://www.w3.org/2000/svg" xmlns:xlink="http://www.w3.org/1999/xlink" xmlns:sketch="http://www.bohemiancoding.com/sketch/ns">
    <title>tube</title>
    <description>Created with Sketch (http://www.bohemiancoding.com/sketch)</description>
    <defs></defs>
    <g id="Transport" stroke="none" stroke-width="1" fill="none" fill-rule="evenodd" sketch:type="MSPage">
        <path d="M27.734,135.227 L26.1,135.227 C25.131,130.528 20.98,127 16,127 C11.016,127.005 6.863,130.532 5.9,135.227 L4.266,135.227 C3.842,135.227 3.5,135.495 3.5,135.823 L3.5,138.831 C3.5,139.155 3.842,139.425 4.266,139.425 L5.896,139.425 C6.859,144.114 11.016,147.641 16,147.641 C20.984,147.641 25.135,144.114 26.102,139.425 L27.734,139.425 C28.16,139.425 28.5,139.155 28.5,138.831 L28.5,135.823 C28.5,135.495 28.16,135.227 27.734,135.227 L27.734,135.227 L27.734,135.227 L27.734,135.227 Z M16,143.952 C13.068,143.946 10.592,142.053 9.715,139.425 L22.283,139.425 C21.404,142.053 18.924,143.946 16,143.952 C16,143.952 18.924,143.946 16,143.952 L16,143.952 L16,143.952 Z M9.717,135.227 C10.594,132.593 13.07,130.69 16,130.682 C18.924,130.69 21.404,132.593 22.283,135.227 L9.717,135.227 L9.717,135.227 Z M9.717,135.227" id="tube--white" fill="#206FAC" sketch:type="MSShapeGroup"></path>
        <path d="M27.734,95.227 L26.1,95.227 C25.131,90.528 20.98,87 16,87 C11.016,87.005 6.863,90.532 5.9,95.227 L4.266,95.227 C3.842,95.227 3.5,95.495 3.5,95.823 L3.5,98.831 C3.5,99.155 3.842,99.425 4.266,99.425 L5.896,99.425 C6.859,104.114 11.016,107.641 16,107.641 C20.984,107.641 25.135,104.114 26.102,99.425 L27.734,99.425 C28.16,99.425 28.5,99.155 28.5,98.831 L28.5,95.823 C28.5,95.495 28.16,95.227 27.734,95.227 L27.734,95.227 L27.734,95.227 L27.734,95.227 Z M16,103.952 C13.068,103.946 10.592,102.053 9.715,99.425 L22.283,99.425 C21.404,102.053 18.924,103.946 16,103.952 C16,103.952 18.924,103.946 16,103.952 L16,103.952 L16,103.952 Z M9.717,95.227 C10.594,92.593 13.07,90.69 16,90.682 C18.924,90.69 21.404,92.593 22.283,95.227 L9.717,95.227 L9.717,95.227 Z M9.717,95.227" id="tube--subdued-grey" fill="#FFFFFF" sketch:type="MSShapeGroup"></path>
        <path d="M27.734,55.227 L26.1,55.227 C25.131,50.528 20.98,47 16,47 C11.016,47.005 6.863,50.532 5.9,55.227 L4.266,55.227 C3.842,55.227 3.5,55.495 3.5,55.823 L3.5,58.831 C3.5,59.155 3.842,59.425 4.266,59.425 L5.896,59.425 C6.859,64.114 11.016,67.641 16,67.641 C20.984,67.641 25.135,64.114 26.102,59.425 L27.734,59.425 C28.16,59.425 28.5,59.155 28.5,58.831 L28.5,55.823 C28.5,55.495 28.16,55.227 27.734,55.227 L27.734,55.227 L27.734,55.227 L27.734,55.227 Z M16,63.952 C13.068,63.946 10.592,62.053 9.715,59.425 L22.283,59.425 C21.404,62.053 18.924,63.946 16,63.952 C16,63.952 18.924,63.946 16,63.952 L16,63.952 L16,63.952 Z M9.717,55.227 C10.594,52.593 13.07,50.69 16,50.682 C18.924,50.69 21.404,52.593 22.283,55.227 L9.717,55.227 L9.717,55.227 Z M9.717,55.227" id="tube--body-grey" fill="#67737B" sketch:type="MSShapeGroup"></path>
        <path d="M27.734,15.227 L26.1,15.227 C25.131,10.528 20.98,7 16,7 C11.016,7.005 6.863,10.532 5.9,15.227 L4.266,15.227 C3.842,15.227 3.5,15.495 3.5,15.823 L3.5,18.831 C3.5,19.155 3.842,19.425 4.266,19.425 L5.896,19.425 C6.859,24.114 11.016,27.641 16,27.641 C20.984,27.641 25.135,24.114 26.102,19.425 L27.734,19.425 C28.16,19.425 28.5,19.155 28.5,18.831 L28.5,15.823 C28.5,15.495 28.16,15.227 27.734,15.227 L27.734,15.227 L27.734,15.227 L27.734,15.227 Z M16,23.952 C13.068,23.946 10.592,22.053 9.715,19.425 L22.283,19.425 C21.404,22.053 18.924,23.946 16,23.952 C16,23.952 18.924,23.946 16,23.952 L16,23.952 L16,23.952 Z M9.717,15.227 C10.594,12.593 13.07,10.69 16,10.682 C18.924,10.69 21.404,12.593 22.283,15.227 L9.717,15.227 L9.717,15.227 Z M9.717,15.227" id="tube--title-grey" fill="#3A434E" sketch:type="MSShapeGroup"></path>
    </g>
</svg>
